source/images/grapheme2.svg

<svg width="222" height="148" viewBox="0 0 222 148" fill="none" xmlns="http://www.w3.org/2000/svg">
<path d="M110.952 109.68L74.8803 73.6074L111.026 37.4621L73.5635 0L0 73.5635L73.5562 147.12L110.974 109.702L110.952 109.68Z" fill="#080808"/>
<path d="M222 73.6001L148.444 0.0438843L111.026 37.4621L147.12 73.5562L110.974 109.702L148.436 147.164L222 73.6001Z" fill="#080808"/>
<path d="M147.5 73.5561L110.974 37.2792L74.6243 73.6293L110.974 109.972" fill="#D825A9"/>
</svg>

<svg width="222" height="148" fill="none" xmlns="http://www.w3.org/2000/svg"><path d="M110.952 109.68L74.88 73.607l36.146-36.145L73.564 0 0 73.564l73.556 73.556 37.418-37.418-.022-.022z" fill="#080808"/><path d="M222 73.6L148.444.044l-37.418 37.418 36.094 36.094-36.146 36.146 37.462 37.462L222 73.6z" fill="#080808"/><path d="M147.5 73.556L110.974 37.28l-36.35 36.35 36.35 36.343" fill="#D825A9"/></svg>
